!!!!SEGMENT: pl-kk--kk-i-284--002_anonim--christo-profusum-sanguinem.krn
!!!cenid: 17xx:2097
!!!COM: Anonim
!!!COM-rismID: pe30004985
!!!CDT:
!!!CNT:
!!!OTL: Christo profusum sanguinem
!!!PDT:
!!!AGN: Sacred
!!!SMS-siglum: PL-Kk
!!!SMS-shelfmark: Kk.I.284
!!!SMS-shelfwork: 002 W
!!!SMS-variant:
!!!SMS-altvar:
!!!NIFC-rismSourceID: 1001147649
!!!NIFC-rismChildID: 1001147652
!!!NIFC-islandoraID: pl-kk:4966
!!!URL-pdf-islandora: https://repozytorium.nifc.pl/islandora/object/pl-kk%3A4966/datastream/PDF/view
!!!URL-scan: https://polish.musicsources.pl/pl/lokalizacje/galeria/rekopisy/5902 @EN{Scan on Polish Music Sources Website} @PL{Skany w portalu Dziedzictwo Muzyki Polskiej w otwartym dostępie}
!!!IIIF:
!!!ONB-nifc: UWAGA: utwory w zbiorze: 1. Sanctorum meritis, 2. Christo profusum sanguinem
!!!AIN: 1 alto 1 empty 1 tenor 1 vox
!!!key:
**kern	**fba	**text	**text	**text	**text	**kern	**text	**text	**text	**text	**kern	**text	**text	**text	**text	**kern	**text	**text	**text	**text
*part4	*part4	*part4	*part4	*part4	*part4	*part3	*part3	*part3	*part3	*part3	*part2	*part2	*part2	*part2	*part2	*part1	*part1	*part1	*part1	*part1
*staff4	*staff4	*staff4	*staff4	*staff4	*staff4	*staff3	*staff3	*staff3	*staff3	*staff3	*staff2	*staff2	*staff2	*staff2	*staff2	*staff1	*staff1	*staff1	*staff1	*staff1
*Iempty	*	*	*	*	*	*Itenor	*	*	*	*	*Ialto	*	*	*	*	*Ivox	*	*	*	*
*I"Baſso.	*	*	*	*	*	*I"Tenore	*	*	*	*	*I"Alto.	*	*	*	*	*I"Canto.	*	*	*	*
*I'B.	*	*	*	*	*	*I'T.	*	*	*	*	*I'A.	*	*	*	*	*I'C.	*	*	*	*
*clefF4	*	*	*	*	*	*clefC4	*	*	*	*	*clefC3	*	*	*	*	*clefC1	*	*	*	*
*ok[b-b-]	*	*	*	*	*	*	*	*	*	*	*	*	*	*	*	*	*	*	*	*
*k[b-]	*	*	*	*	*	*k[b-]	*	*	*	*	*k[b-]	*	*	*	*	*k[b-]	*	*	*	*
*g:	*	*	*	*	*	*g:	*	*	*	*	*g:	*	*	*	*	*g:	*	*	*	*
*M3/2	*	*	*	*	*	*M3/2	*	*	*	*	*M3/2	*	*	*	*	*M3/2	*	*	*	*
=1-	=1-	=1-	=1-	=1-	=1-	=1-	=1-	=1-	=1-	=1-	=1-	=1-	=1-	=1-	=1-	=1-	=1-	=1-	=1-	=1-
*2\right	*	*	*	*	*	*2\right	*	*	*	*	*2\right	*	*	*	*	*2\right	*	*	*	*
!LO:TX:a:t=Lentè	!	!	!	!	!	!	!	!	!	!	!	!	!	!	!	!	!	!	!	!
!LO:TX:a:B:t=II.	!	!	!	!	!	!LO:TX:a:B:t=II.	!	!	!	!	!LO:TX:a:B:t=II.	!	!	!	!	!LO:TX:a:B:t=II	!	!	!	!
2G\	.	Chri-	Tra-	Nu-	Te	2B-\	Chri-	Tra-	Nu-	Te	2g\	Chri-	Tra-	Nu-	Te	2dd\	1. Chri-	2. Tra-	3. Nu-	4. Te
2B-\	.	-sto	-dun-	-da-	nunc	2B-\	-sto	-dun-	-da-	nunc	2g\	-sto	-dün-	-da-	nunc	2b-X,<\	-sto	-dun-	-da-	nunc
!LO:TX:t=P:problem=kreska pseudotaktowa	!	!	!	!	!	!LO:TX:t=P:problem=kreska pseudotaktowa	!	!	!	!	!LO:TX:t=P:problem=kreska pseudotaktowa	!	!	!	!	!	!	!	!	!
2F#X\	6	pro-	-tur	-ta	Re-	2A\	pro-	-tur	-ta	Re-	2a\	pro-	-tur	-ta	Re-	(4dd\	pro-	-tur	-ta	Re-
!	!	!	!	!	!	!	!	!	!	!	!	!	!	!	!	!LO:TX:t=P:problem=kreska pseudotaktowa	!	!	!	!
.	.	.	.	.	.	.	.	.	.	.	.	.	.	.	.	4cc\)	.	.	.	.
=2-	=2-	=2-	=2-	=2-	=2-	=2-	=2-	=2-	=2-	=2-	=2-	=2-	=2-	=2-	=2-	=2-	=2-	=2-	=2-	=2-
2G\	.	-fu-	i-	pen-	-demp-	2d\	-fu-	ig-	pen-	-dem-	2g\	-fu-	ig-	pen-	-dem-	2b-\	-fu-	i-	pen-	-demp-
2D,<\	#	-sum	-gni	-dent,	-tor	2d,<\	-sum	-ni,	-dent,	-ptor	2f#X\	-sum	-ni,	-dent	-ptor	2a,<\	-sum	-gni	-dent	-tor
*	*	*	*	*	*ij	*	*	*	*	*	*	*	*	*	*	*	*	*	*	*
!LO:TX:t=P:problem=kreska pseudotaktowa	!	!	!	!	!	!LO:TX:t=P:problem=kreska pseudotaktowa	!	!	!	!	!LO:TX:t=P:problem=kreska pseudotaktowa	!	!	!	!	!LO:TX:t=P:problem=kreska pseudotaktowa	!	!	!	!
2E-X\	.	pro-	tra-	nu-	Re-	2B-\	pro-	tra-	nu-	Re-	2g\	pro-	tra-	nu-	Re-	2g/	pro-	tra-	nü-	Re-
=3-	=3-	=3-	=3-	=3-	=3-	=3-	=3-	=3-	=3-	=3-	=3-	=3-	=3-	=3-	=3-	=3-	=3-	=3-	=3-	=3-
!LO:SIC:v	!	!	!	!	!	!	!	!	!	!	!	!	!	!	!	!	!	!	!	!
1Eny	4 2	-fu-	-dun-	-da-	-demp-	1c	-fu-	-dun-	-da-	-dem-	1fn	-fu-	-dun-	-da-	-dem-	1an	-fu-	-dun-	-da-	-demp-
!LO:TX:t=P:problem=kreska pseudotaktowa	!	!	!	!	!	!LO:TX:t=P:problem=kreska pseudotaktowa	!	!	!	!	!LO:TX:t=P:problem=kreska pseudotaktowa	!	!	!	!	!LO:TX:a:t=P:problem=♭ above	!	!	!	!
!	!	!	!	!	!	!	!	!	!	!	!	!	!	!	!	!LO:TX:t=P:problem=kreska pseudotaktowa	!	!	!	!
2D/	6	-sum	-tur	-ta	-tor	2d\	-sum	-tur	-ta	-ptor	2f\	-sum	-tur	-ta	-ptor	2b-X\	-sum	-tur	-ta	-tor
*	*	*	*	*	*Xij	*	*	*	*	*	*	*	*	*	*	*	*	*	*	*
=4-	=4-	=4-	=4-	=4-	=4-	=4-	=4-	=4-	=4-	=4-	=4-	=4-	=4-	=4-	=4-	=4-	=4-	=4-	=4-	=4-
2C/	5 7	san-	Mar-	viſ-	quae-	(4e-X\	san-	Mar-	vi-	qüae-	2g\	san-	Mar-	vis-	quae-	1b-	san-	Mar-	viſ-	quae-
.	.	.	.	.	.	4d\)	.	.	.	.	.	.	.	.	.	.	.	.	.	.
2Fny\	5 4	.	.	.	.	2.c\	.	.	.	.	2.f\	.	.	.	.	.	.	.	.	.
!LO:TX:t=P:problem=kreska pseudotaktowa	!	!	!	!	!	!	!	!	!	!	!	!	!	!	!	!LO:TX:t=P:problem=kreska pseudotaktowa	!	!	!	!
2FF/	X 3rn	-gui-	-ty-	-ce-	-su-	.	.	.	.	.	.	.	.	.	.	2a\	-gui-	-ty-	-ce-	-su-
!	!	!	!	!	!	!LO:TX:t=P:problem=kreska pseudotaktowa	!	!	!	!	!LO:TX:t=P:problem=kreska pseudotaktowa	!	!	!	!	!	!	!	!	!
.	.	.	.	.	.	4c\	-gui-	-ty-	-sce-	-sü-	4f\	-gui-	-ty-	-ce-	-su-	.	.	.	.	.
=5-	=5-	=5-	=5-	=5-	=5-	=5-	=5-	=5-	=5-	=5-	=5-	=5-	=5-	=5-	=5-	=5-	=5-	=5-	=5-	=5-
!LO:TX:t=P:problem=kreska pseudotaktowa	!	!	!	!	!	!LO:TX:t=P:problem=kreska pseudotaktowa	!	!	!	!	!LO:TX:t=P:problem=kreska pseudotaktowa	!	!	!	!	!LO:TX:t=P:problem=kreska pseudotaktowa	!	!	!	!
1.BB-	.	-nem,	-res;	-ra,	-m(us),	1.d	-nem,	-res;	-ra	-m(us)	1.f	-nem,	-res,	-ra,	-m(us),	1.b-,<	-nem,	-res;	-ra,	-m(us):
=6-	=6-	=6-	=6-	=6-	=6-	=6-	=6-	=6-	=6-	=6-	=6-	=6-	=6-	=6-	=6-	=6-	=6-	=6-	=6-	=6-
!LO:TX:t=P:problem=kreska pseudotaktowa	!	!	!	!	!	!	!	!	!	!	!LO:TX:a:t=1.	!	!	!	!	!	!	!	!	!
!	!	!	!	!	!	!	!	!	!	!	!LO:TX:t=P:problem=kreska pseudotaktowa	!	!	!	!	!	!	!	!	!
1.rA	.	.	.	.	.	2d\	et	et	san-	ut	1.rg	.	.	.	.	2ff\	et	et	san-	ut
.	.	.	.	.	.	(4d\	Mar-	be-	-guis	Mar-	.	.	.	.	.	(4ff\	Mar-	be-	-quis	Mar-
.	.	.	.	.	.	4c\	.	.	.	.	.	.	.	.	.	4ee-X\	.	.	.	.
.	.	.	.	.	.	4B-\)	.	.	.	.	.	.	.	.	.	4dd\	.	.	.	.
!	!	!	!	!	!	!LO:TX:t=P:problem=kreska pseudotaktowa	!	!	!	!	!	!	!	!	!	!LO:TX:t=P:problem=kreska pseudotaktowa	!	!	!	!
.	.	.	.	.	.	4A\	.	.	.	.	.	.	.	.	.	4cc\)	.	.	.	.
=7-	=7-	=7-	=7-	=7-	=7-	=7-	=7-	=7-	=7-	=7-	=7-	=7-	=7-	=7-	=7-	=7-	=7-	=7-	=7-	=7-
(2B-\	.	et	et	San-	ut	2.B-\	.	.	sa-	.	2f\	et	et	San-	ut	2.dd\	.	.	sa-	.
!	!	!	!	!	!	!	!	!	!	!	!LO:TX:t=P:problem=kreska pseudotaktowa	!	!	!	!	!	!	!	!	!
4B-\	.	Mar-	be-	-quis	Mar-	.	.	.	.	.	1fT	Mar-	bes-	.	Mar-	.	.	.	.	.
4A-X\	.	.	.	.	.	4B-\	-ty-	.	-cra-	-ty-	.	.	.	.	.	4cc\	.	.	-cra-	.
!	!	!	!	!	!	!LO:TX:t=P:problem=kreska pseudotaktowa	!	!	!	!	!	!	!	!	!	!	!	!	!	!
4G\	.	.	.	.	.	2B-\	-rum	-Stia-	-tus	-rum	.	.	.	.	.	4b-\	.	.	.	.
!	!	!	!	!	!	!	!	!	!	!	!	!	!	!	!	!LO:TX:a:t=P:problem=♭ above	!	!	!	!
!LO:TX:t=P:problem=kreska pseudotaktowa	!	!	!	!	!	!	!	!	!	!	!	!	!	!	!	!LO:TX:t=P:problem=kreska pseudotaktowa	!	!	!	!
4F\)	.	.	.	.	.	.	.	.	.	.	.	.	.	.	.	4a-X\	.	.	.	.
=8-	=8-	=8-	=8-	=8-	=8-	=8-	=8-	=8-	=8-	=8-	=8-	=8-	=8-	=8-	=8-	=8-	=8-	=8-	=8-	=8-
2.E-X\	.	.	.	.	.	2.B-\	Mar-	-rum	san-	Mar-	2.g\	.	.	-guis	ty-	2.g/	.	.	-tus	ty-
4E-\	.	-ty-	stia-	-sa-	-ty-	4B-\	-ty-	be-	-guis-	-ty-	4g\	-ty-	-tia-	san-	-rum	4ee-X\	-ty-	-stia-	san-	-rum
4E-\	.	-rum	-rum	-cra-	-rum	4B-\	-rum	.	.	-rum	4g\	-rum	-rum	-guis	ut	4ee-\	-rum	-rum	-guis	ut
!LO:TX:t=P:problem=kreska pseudotaktowa	!	!	!	!	!	!LO:TX:t=P:problem=kreska pseudotaktowa	!	!	!	!	!LO:TX:t=P:problem=kreska pseudotaktowa	!	!	!	!	!LO:TX:t=P:problem=kreska pseudotaktowa	!	!	!	!
4E-\	.	et	.	-tus	et	4B-\	et	.	sa-	ut	4g\	et	be-	sa-	Mar-	4ee-\	et	be-	sa-	Mar-
=9-	=9-	=9-	=9-	=9-	=9-	=9-	=9-	=9-	=9-	=9-	=9-	=9-	=9-	=9-	=9-	=9-	=9-	=9-	=9-	=9-
2.A-X\	.	Mar-	be-	-sa-	Mar-	2.A-X\	Mar-	ſtia-	-cra-	Mar-	2.e-X\	Mar-	-ſtia-	-cra-	-ty-	2.cc\	Mar-	-ſtia-	-cra-	-ty-
4A-\	4 2	-ty-	-ſtia-	-cra-	-ty-	4B-\	-ty-	.	.	ty-	4f\	ty-	.	.	.	4dd\	-ty-	.	.	.
*custos:F	*	*	*	*	*	*	*	*	*	*	*	*	*	*	*	*custos:ee-	*	*	*	*
!LO:TX:t=P:problem=kreska pseudotaktowa	!	!	!	!	!	!LO:TX:t=P:problem=kreska pseudotaktowa	!	!	!	!	!LO:TX:t=P:problem=kreska pseudotaktowa	!	!	!	!	!LO:TX:t=P:problem=kreska pseudotaktowa	!	!	!	!
!	!	!	!	!	!	!	!	!	!	!	!	!	!	!	!	!LO:SIC:v:s=2ee-	!	!	!	!
2G\	6	-rum	-rum	-tus	-rum	2B-\	-r(um)	-rum	-t(us)	-r(um)	2g\	-rum	-rum	-t(us)	-rum	2eeny\	-rum	.	.	-rum
=10-	=10-	=10-	=10-	=10-	=10-	=10-	=10-	=10-	=10-	=10-	=10-	=10-	=10-	=10-	=10-	=10-	=10-	=10-	=10-	=10-
!LO:LB:g=original	!	!	!	!	!	!LO:LB:g=original	!	!	!	!	!	!	!	!	!	!LO:LB:g=original	!	!	!	!
2F\	7	Vic-	den-	fun-	con-	2c\	Vic-	den-	fun-	Con-	2a-X\	Vic-	den-	fun-	con-	2ee-X\	Vi-	-rum	-tus	con-
2B-\	.	-to-	.	.	-for-	2.B-\	-to-	.	.	-for-	2.f\	-to-	.	-di-	-for-	2ee-\	-cto-	den-	fun-	-ſor-
!LO:TX:t=P:problem=kreska pseudotaktowa	!	!	!	!	!	!	!	!	!	!	!	!	!	!	!	!LO:TX:t=P:problem=kreska pseudotaktowa	!	!	!	!
2BB-/	.	-ri-	-ti-	-di-	-ti-	.	.	.	.	.	.	.	.	.	.	2dd\	-ri-	-ti-	-di-	-ti-
!	!	!	!	!	!	!LO:TX:t=P:problem=kreska pseudotaktowa	!	!	!	!	!LO:TX:t=P:problem=kreska pseudotaktowa	!	!	!	!	!	!	!	!	!
.	.	.	.	.	.	4B-\	-ri-	-ti-	-di-	-ti-	4f\	-ri-	-ti-	.	-ti-	.	.	.	.	.
=11-	=11-	=11-	=11-	=11-	=11-	=11-	=11-	=11-	=11-	=11-	=11-	=11-	=11-	=11-	=11-	=11-	=11-	=11-	=11-	=11-
!LO:TX:t=P:problem=kreska pseudotaktowa	!	!	!	!	!	!LO:TX:t=P:problem=kreska pseudotaktowa	!	!	!	!	!LO:TX:t=P:problem=kreska pseudotaktowa	!	!	!	!	!LO:TX:t=P:problem=kreska pseudotaktowa	!	!	!	!
!	!	!	!	!	!	!	!	!	!	!	!	!	!	!	!	!LO:SIC:v:s=1.ee-	!	!	!	!
1.E-X,<	.	-as	-bus	-tur,	-o	1.B-	-as	-bus,	-tur	-o	1.g,<	-as	-bus	-tur	-o	1.eeny,<	-as	-bus,	-tur;	-o
=12-	=12-	=12-	=12-	=12-	=12-	=12-	=12-	=12-	=12-	=12-	=12-	=12-	=12-	=12-	=12-	=12-	=12-	=12-	=12-	=12-
!	!	!	!	!	!	!	!	!	!	!	!LO:LB:g=original	!	!	!	!	!	!	!	!	!
2B-\	.	dig-	ar-	sed	Jun-	2B-\	dig-	ar-	sed	Jun-	2f\	dig-	ar-	Sed	Iün-	2dd\	di-	ar-	Sed	Jun-
2BB-/	.	-nam-	-ma-	per-	-gas	2B-\	-nam-	-ma-	per-	-gas	2f\	-nam-	-ma-	per-	-gas	2dd\	-gnam-	-ma-	per-	-gas
*	*below	*	*	*	*	*	*	*	*	*	*	*	*	*	*	*	*	*	*	*
!LO:TX:t=P:problem=kreska pseudotaktowa	!	!	!	!	!	!LO:TX:t=P:problem=kreska pseudotaktowa	!	!	!	!	!LO:TX:t=P:problem=kreska pseudotaktowa	!	!	!	!	!LO:TX:t=P:problem=kreska pseudotaktowa	!	!	!	!
2B-\	6	-q(ue)	-ta	-ma-	pre-	2G/	-q(ue)	-ta	-ma-	pre-	2d\	-que	-ta	-ma-	pre-	2b-\	-q(ue)	-ta	-ma-	pre-
=13-	=13-	=13-	=13-	=13-	=13-	=13-	=13-	=13-	=13-	=13-	=13-	=13-	=13-	=13-	=13-	=13-	=13-	=13-	=13-	=13-
1B-	4 2	cae-	sae-	-nent	-can-	1G	cae-	sae-	-nent	-can-	1en	cae-	sae-	-nent	-can-	1cc	cae-	sae-	-nent	-can-
*	*above	*	*	*	*	*	*	*	*	*	*	*	*	*	*	*	*	*	*	*
!LO:TX:t=P:problem=kreska pseudotaktowa	!	!	!	!	!	!LO:TX:t=P:problem=kreska pseudotaktowa	!	!	!	!	!LO:TX:t=P:problem=kreska pseudotaktowa	!	!	!	!	!LO:TX:t=P:problem=kreska pseudotaktowa	!	!	!	!
2Any\	6	-lo	-vit	i-	-tes	2An/	-lo	-vit	im-	-tes	2f\	-lo	-vit	im-	-tes	2cc\	-lo	-vit	im-	-tes
=14-	=14-	=14-	=14-	=14-	=14-	=14-	=14-	=14-	=14-	=14-	=14-	=14-	=14-	=14-	=14-	=14-	=14-	=14-	=14-	=14-
2G\	7 5	Laü-	ün-	-mo-	ser-	2d\	Laü-	un-	-mo-	ser-	1f	Lau-	un-	-mo-	Ser-	2b-\	laü-	un-	-mo-	Ser-
2c\	.	.	.	.	.	2.c\	.	.	.	.	.	.	.	.	.	2.g/	.	.	.	.
!LO:TX:t=P:problem=kreska pseudotaktowa	!	!	!	!	!	!	!	!	!	!	!LO:TX:t=P:problem=kreska pseudotaktowa	!	!	!	!	!	!	!	!	!
2C/	.	-re-	-gu-	-bi-	-vu-	.	.	.	.	.	2en\	-re-	-gu-	-bi-	-vu-	.	.	.	.	.
!	!	!	!	!	!	!LO:TX:t=P:problem=kreska pseudotaktowa	!	!	!	!	!	!	!	!	!	!LO:TX:t=P:problem=kreska pseudotaktowa	!	!	!	!
.	.	.	.	.	.	4c\	-re-	-gu-	-bi-	-vu-	.	.	.	.	.	4g/	-re-	-gu-	-bi-	-vu-
=15-	=15-	=15-	=15-	=15-	=15-	=15-	=15-	=15-	=15-	=15-	=15-	=15-	=15-	=15-	=15-	=15-	=15-	=15-	=15-	=15-
!LO:TX:t=P:problem=kreska pseudotaktowa	!	!	!	!	!	!LO:TX:t=P:problem=kreska pseudotaktowa	!	!	!	!	!LO:TX:t=P:problem=kreska pseudotaktowa	!	!	!	!	!	!	!	!	!
1.F	.	-am,	-lis	-les	-los	1.c	-am	-lis	-les	-los	1.f,<	-am	-lis	-les	-los	1.any,<	-am	-lis	-les	-los
!	!	!	!	!	!	!	!	!	!	!	!	!	!	!	!	!LO:TX:t=P:problem=kreska pseudotaktowa	!	!	!	!
=16-	=16-	=16-	=16-	=16-	=16-	=16-	=16-	=16-	=16-	=16-	=16-	=16-	=16-	=16-	=16-	=16-	=16-	=16-	=16-	=16-
2D\	.	lae-	Tor-	Vi-	in	2A/	Lae-	Tor-	Vi-	in	2f#X\	Lae-	Tor-	Vi-	in	2dd\	Lae-	Tor-	Vi-	in
2F#X\	6	-tis	-to-	-tae	sem-	2A/	-tis	-to-	-tae	sem-	2d\	-tis	-to-	-tae	sem-	2a\	-tis	-to-	-tae	sem-
!LO:TX:t=P:problem=kreska pseudotaktowa	!	!	!	!	!	!LO:TX:t=P:problem=kreska pseudotaktowa	!	!	!	!	!LO:TX:t=P:problem=kreska pseudotaktowa	!	!	!	!	!LO:TX:t=P:problem=kreska pseudotaktowa	!	!	!	!
2D\	.	se-	-ris	pe-	-pi-	2A/	se-	-ris	pe-	-pi-	2f#X\	se-	-ris	pe-	-pi-	2dd\	se-	-ris	pe-	-pi-
=17-	=17-	=17-	=17-	=17-	=17-	=17-	=17-	=17-	=17-	=17-	=17-	=17-	=17-	=17-	=17-	=17-	=17-	=17-	=17-	=17-
2G\	.	-qua-	in-	-ren-	-ter-	2G/	-qua-	in-	-ren-	-ter-	2d\	-qüa-	in-	-ren-	-ter-	2b-\	-qüa-	in-	-ren-	-ter-
2D\	#	-mur,	-ſani,	-nis	-na	2F#X,</	-mur	-fa-	-nis	-na	2d\	-mur	-fa-	-nis	-na	2a,<\	-mur	-ſani,	-nis	-na
!LO:TX:t=P:problem=kreska pseudotaktowa	!	!	!	!	!	!LO:TX:t=P:problem=kreska pseudotaktowa	!	!	!	!	!LO:TX:t=P:problem=kreska pseudotaktowa	!	!	!	!	!LO:TX:t=P:problem=kreska pseudotaktowa	!	!	!	!
2r	.	.	.	.	.	2B-\	se-	-ni	pe-	in	2r	.	.	.	.	2dd\	se-	Tor-	pe-	in
=18-	=18-	=18-	=18-	=18-	=18-	=18-	=18-	=18-	=18-	=18-	=18-	=18-	=18-	=18-	=18-	=18-	=18-	=18-	=18-	=18-
2r	.	.	.	.	.	4B-\	-qua-	Tor-	-ren-	sem-	2re	.	.	.	.	4dd\	-qüa-	-to-	-ren-	sem-
.	.	.	.	.	.	4A\	.	.	.	.	.	.	.	.	.	(4cc\	.	.	.	.
2r	.	.	.	.	.	4B-\	.	.	.	.	2re	.	.	.	.	4dd\	.	.	.	.
.	.	.	.	.	.	4c\	.	.	.	.	.	.	.	.	.	4ee-X\)	.	.	.	.
!LO:TX:t=P:problem=kreska pseudotaktowa	!	!	!	!	!	!	!	!	!	!	!LO:TX:t=P:problem=kreska pseudotaktowa	!	!	!	!	!	!	!	!	!
2G\	.	se-	Tor-	pe-	in	4B-\	.	.	.	-pi-	2b-\	Sa-	-ni,	pe-	in	4dd\	.	.	.	pi-
!	!	!	!	!	!	!LO:TX:t=P:problem=kreska pseudotaktowa	!	!	!	!	!	!	!	!	!	!LO:TX:t=P:problem=kreska pseudotaktowa	!	!	!	!
.	.	.	.	.	.	4A\	.	.	.	.	.	.	.	.	.	4cc\	.	.	.	.
=19-	=19-	=19-	=19-	=19-	=19-	=19-	=19-	=19-	=19-	=19-	=19-	=19-	=19-	=19-	=19-	=19-	=19-	=19-	=19-	=19-
(4G\	.	-qua-	-to-	-ren-	sem-	2G/	.	-to-	.	-ter-	4b-\	-qua-	Tor-	-ren-	sem-	2b-\	.	.	.	-ter-
4Fny\	.	.	.	.	.	.	.	.	.	.	4any\	.	-to-	.	.	.	.	.	.	.
4G\	.	.	.	.	.	2G,</	-mur	-ris	-nis	-na	4b-\	.	.	.	.	2b-,<\	-mur	-ris	-nis,	-na
4A\)	.	.	.	.	.	.	.	.	.	.	4cc\	.	.	.	.	.	.	.	.	.
*	*	*	*	*	*	*custos:G	*	*	*	*	*	*	*	*	*	*	*	*	*	*
!	!	!	!	!	!	!LO:TX:t=P:problem=kreska pseudotaktowa	!	!	!	!	!	!	!	!	!	!LO:TX:t=P:problem=kreska pseudotaktowa	!	!	!	!
4G\	.	.	.	.	pi-	2G/	se-	Tor-	pe-	in	4b-\	.	.	.	pi-	2b-\	se-	tor-	pe-	in
!LO:TX:t=P:problem=kreska pseudotaktowa	!	!	!	!	!	!	!	!	!	!	!LO:TX:t=P:problem=kreska pseudotaktowa	!	!	!	!	!	!	!	!	!
4F\	.	.	.	.	.	.	.	.	.	.	4a\	.	.	.	.	.	.	.	.	.
=20-	=20-	=20-	=20-	=20-	=20-	=20-	=20-	=20-	=20-	=20-	=20-	=20-	=20-	=20-	=20-	=20-	=20-	=20-	=20-	=20-
!	!	!	!	!	!	!LO:LB:g=original	!	!	!	!	!	!	!	!	!	!	!	!	!	!
2En\	6	.	.	.	-ter-	2G/	-qua-	-To-	-ren-	sem-	2g\	.	.	.	-ter-	4cc\	-qüa-	-to-	-ren-	sem-
.	.	.	.	.	.	.	.	.	.	.	.	.	.	.	.	4b-\	.	.	.	.
2C,</	.	-mur	-ris	-nis	-na	2c,<\	-mur	-ris	-nis	.	2g,<\	-mur	-ris	-nis	-na	4cc\	.	.	.	.
.	.	.	.	.	.	.	.	.	.	.	.	.	.	.	.	4dd\	.	.	.	.
*	*	*	*	*	*	*	*ij	*ij	*ij	*	*	*	*	*	*	*	*	*	*	*
*	*	*	*	*	*	*	*	*	*	*	*custos:fn	*	*	*	*	*	*	*	*	*
!LO:TX:t=P:problem=kreska pseudotaktowa	!	!	!	!	!	!LO:TX:t=P:problem=kreska pseudotaktowa	!	!	!	!	!	!	!	!	!	!	!	!	!	!
!	!	!	!	!	!	!	!	!	!	!	!LO:TX:t=P:problem=kreska pseudotaktowa	!	!	!	!	!	!	!	!	!
2E\	.	se-	Tor-	pe-	in	2c\	se-	Tor-	pe-	-pi-	2g\	se-	tor-	pe-	in	4cc\	.	.	.	.
*	*	*	*	*	*	*	*	*	*	*	*	*	*	*	*	*custos:a	*	*	*	*
!	!	!	!	!	!	!	!	!	!	!	!	!	!	!	!	!LO:TX:t=P:problem=kreska pseudotaktowa	!	!	!	!
.	.	.	.	.	.	.	.	.	.	.	.	.	.	.	.	4b-\	.	.	.	.
=21-	=21-	=21-	=21-	=21-	=21-	=21-	=21-	=21-	=21-	=21-	=21-	=21-	=21-	=21-	=21-	=21-	=21-	=21-	=21-	=21-
!LO:LB:g=original	!	!	!	!	!	!	!	!	!	!	!LO:LB:g=original	!	!	!	!	!LO:LB:g=original	!	!	!	!
4F\	.	-qüa-	-to-	-ren-	sem-	2c\	-qua-	-To-	-ren-	-ter-	2fn\	-qua-	-to-	-ren-	sem-	4a\	.	.	.	.
4E-X\	.	.	.	.	.	.	.	.	.	.	.	.	.	.	.	4g\	.	.	.	.
4F\	.	.	.	.	.	2c\	-mur	-ris	-nis	-na	2f,<\	-mur	-ris	-nis	-pi-	4a\	.	.	.	.
4G\	.	.	.	.	.	.	.	.	.	.	.	.	.	.	.	4b-\	.	.	.	.
*	*	*	*	*	*	*	*Xij	*Xij	*Xij	*	*	*ij	*	*ij	*	*	*	*	*	*
!	!	!	!	!	!	!LO:TX:t=P:problem=kreska pseudotaktowa	!	!	!	!	!LO:TX:t=P:problem=kreska pseudotaktowa	!	!	!	!	!	!	!	!	!
4F\	.	.	.	.	-pi-	2c\	se-	in-	pe-	in	2f\	se-	in-	pe-	-ter-	4a\	.	.	.	-pi-
!LO:TX:t=P:problem=kreska pseudotaktowa	!	!	!	!	!	!	!	!	!	!	!	!	!	!	!	!LO:TX:t=P:problem=kreska pseudotaktowa	!	!	!	!
4E-X\	.	.	.	.	.	.	.	.	.	.	.	.	.	.	.	4g\	.	.	.	.
=22-	=22-	=22-	=22-	=22-	=22-	=22-	=22-	=22-	=22-	=22-	=22-	=22-	=22-	=22-	=22-	=22-	=22-	=22-	=22-	=22-
2D/	6	.	.	.	-ter-	2B-X\	-qua-	-sa-	-ren-	sem-	2f\	-qua-	-ſa-	-ren-	-na	2f/	.	.	.	-ter-
2BB-/	.	-mür,	-ris	-nis	-na	2B-,<\	-mur,	-ni	-nis	.	2f,<\	-mur	-ni,	-nis	in	2f,</	-mür	-ris	-nis	-na
*	*below	*	*	*	*	*	*	*	*	*	*	*Xij	*	*Xij	*	*	*	*	*	*
!LO:TX:t=P:problem=kreska pseudotaktowa	!	!	!	!	!	!LO:TX:t=P:problem=kreska pseudotaktowa	!	!	!	!	!LO:TX:t=P:problem=kreska pseudotaktowa	!	!	!	!	!LO:TX:t=P:problem=kreska pseudotaktowa	!	!	!	!
2B-\	6	lae-	Tor-	Vi-	in	2d\	lae-	Tor-	Vi-	-pi-	[<2g\	lae-	Tor-	Vi-	sem-	2dd\	Lae-	Tor-	Vi-	in
=23-	=23-	=23-	=23-	=23-	=23-	=23-	=23-	=23-	=23-	=23-	=23-	=23-	=23-	=23-	=23-	=23-	=23-	=23-	=23-	=23-
*	*above	*	*	*	*	*	*	*	*	*	*	*	*	*	*	*	*	*	*	*
1A	7	-tis	-to-	-tae	sem-	1A	-tis	-to-	-tae	-ter-	2g\]	.	.	.	.	1cc	-tis	-to-	-tae	sem-
.	6/	.	.	.	.	.	.	.	.	.	2f#X,<\	-tis	-to-	-tae	.	.	.	.	.	.
!LO:TX:t=P:problem=kreska pseudotaktowa	!	!	!	!	!	!	!	!	!	!	!LO:TX:t=P:problem=kreska pseudotaktowa	!	!	!	!	!LO:TX:t=P:problem=kreska pseudotaktowa	!	!	!	!
2G\	.	se-	-ris	pe-	-pi-	4B-\	se-	-ris	pe-	.	2g\	se-	-ris	pe-	-pi-	2b-\	se-	-ris	per-	-pi-
!	!	!	!	!	!	!LO:TX:t=P:problem=kreska pseudotaktowa	!	!	!	!	!	!	!	!	!	!	!	!	!	!
.	.	.	.	.	.	4c\	.	.	.	.	.	.	.	.	.	.	.	.	.	.
=24-	=24-	=24-	=24-	=24-	=24-	=24-	=24-	=24-	=24-	=24-	=24-	=24-	=24-	=24-	=24-	=24-	=24-	=24-	=24-	=24-
2D/	4	-qua-	in-	-ren-	-ter-	2d\	-qua-	in-	-ren-	-na	2g\	-qüa-	in-	-ren-	-ter-	2a\	-qua-	in-	-ren-	-ter-
2D,</	3r#	-mur	-ſa-	-nis	-na	2d,<\	-mur	-sa-	-nis	in	2f#X\	-mur	-ſa-	-nis	-na	2a,<\	-mür	-ſa-	-nis	-na
!LO:TX:t=P:problem=kreska pseudotaktowa	!	!	!	!	!	!LO:TX:t=P:problem=kreska pseudotaktowa	!	!	!	!	!LO:TX:t=P:problem=kreska pseudotaktowa	!	!	!	!	!LO:TX:t=P:problem=kreska pseudotaktowa	!	!	!	!
2A\	6\	se-	-ni	pe-	in	2c\	se-	-ni,	pe-	sem-	2f#\	se-	-ni	pe-	in	2cc\	se-	-ni	pe-	in
=25-	=25-	=25-	=25-	=25-	=25-	=25-	=25-	=25-	=25-	=25-	=25-	=25-	=25-	=25-	=25-	=25-	=25-	=25-	=25-	=25-
*	*below	*	*	*	*	*	*	*	*	*	*	*	*	*	*	*	*	*	*	*
2B-\	6	-qüa-	in-	-ren-	sem-	2B-\	-qua-	in-	-ren-	-pi-	2g\	-qüa-	in-	-ren-	sem-	2dd\	.	in-	-ren-	sem-
(4c\	6	.	-sa-	.	pi-	4A\	.	-sa-	.	.	4a\	.	-sa-	.	-pi-	4ee-X\	-qüa-	-sa-	.	-pi-
4B-\	6	.	.	.	.	4d\	.	.	.	.	4g\	.	.	.	.	4dd\	.	.	.	.
4A\	6\	.	.	.	.	4A\	.	.	.	.	4f#X\	.	.	.	.	4cc\	.	.	.	.
!LO:TX:t=P:problem=kreska pseudotaktowa	!	!	!	!	!	!LO:TX:t=P:problem=kreska pseudotaktowa	!	!	!	!	!LO:TX:t=P:problem=kreska pseudotaktowa	!	!	!	!	!LO:TX:t=P:problem=kreska pseudotaktowa	!	!	!	!
4G\)	.	.	.	.	.	4B-\	.	.	.	.	4g\	.	.	.	.	4b-\	.	.	.	.
=26-	=26-	=26-	=26-	=26-	=26-	=26-	=26-	=26-	=26-	=26-	=26-	=26-	=26-	=26-	=26-	=26-	=26-	=26-	=26-	=26-
*	*above	*	*	*	*	*	*	*	*	*	*	*	*	*	*	*	*	*	*	*
1F#X	6 5	.	.	.	-ter-	1c	.	.	.	-ter-	1d	.	.	.	-ter-	1at	.	.	.	-ter-
!LO:TX:t=P:problem=kreska pseudotaktowa	!	!	!	!	!	!	!	!	!	!	!LO:TX:t=P:problem=kreska pseudotaktowa	!	!	!	!	!LO:TX:t=P:problem=kreska pseudotaktowa	!	!	!	!
2G\	.	mür	-ni	-nis	-na	4B-\	.	.	.	.	2d\	-mür	-ni	-nis	-na	2b-\	-mür	-ni	-nis	-na
!	!	!	!	!	!	!LO:TX:t=P:problem=kreska pseudotaktowa	!	!	!	!	!	!	!	!	!	!	!	!	!	!
.	.	.	.	.	.	4A\	.	.	.	.	.	.	.	.	.	.	.	.	.	.
=27-	=27-	=27-	=27-	=27-	=27-	=27-	=27-	=27-	=27-	=27-	=27-	=27-	=27-	=27-	=27-	=27-	=27-	=27-	=27-	=27-
2C/	6 5	Vo-	ma-	gra-	sae-	2G/	-mür	-ni	-nis	-na	2e-X\	vo-	ma-	gra-	sae-	(4cc\	vo-	Ma-	gra-	sae-
.	.	.	.	.	.	.	.	.	.	.	.	.	.	.	.	4b-\)	.	.	.	.
2.D/	.	.	.	.	.	2G/	vo-	ma-	gra-	sae-	2d\	.	.	.	.	2.at\	.	.	.	.
!	!	!	!	!	!	!LO:TX:t=P:problem=kreska pseudotaktowa	!	!	!	!	!LO:TX:t=P:problem=kreska pseudotaktowa	!	!	!	!	!	!	!	!	!
.	.	.	.	.	.	2F#X/	-ci-	.	-ti-	-cu-	2d\	-ci-	.	-ti-	-cu-	.	.	.	.	.
!LO:TX:t=P:problem=kreska pseudotaktowa	!	!	!	!	!	!	!	!	!	!	!	!	!	!	!	!LO:TX:t=P:problem=kreska pseudotaktowa	!	!	!	!
4D/	.	-ci-	.	-ti-	-cu-	.	.	.	.	.	.	.	.	.	.	4a\	-ci-	.	ti-	-cu-
=28-	=28-	=28-	=28-	=28-	=28-	=28-	=28-	=28-	=28-	=28-	=28-	=28-	=28-	=28-	=28-	=28-	=28-	=28-	=28-	=28-
!	!	!	!	!	!	!	!	!	!	!	!LO:N:vis=1.	!	!	!	!	!	!	!	!	!
0.GG;	.	-bus.	-nus.	-â.	-la.	0.G;	-bus.	-nus.	-â.	-la.	0.d,<	-b(us).	-nus.	-â	-la.	0.bn;	-bus	-nus.	-â.	-la.
=29-	=29-	=29-	=29-	=29-	=29-	=29-	=29-	=29-	=29-	=29-	=29-	=29-	=29-	=29-	=29-	=29-	=29-	=29-	=29-	=29-
.	.	.	.	.	.	.	.	.	.	.	.	.	.	.	.	.	.	.	.	.
!LO:PB:g=original	!	!	!	!	!	!LO:PB:g=original	!	!	!	!	!LO:PB:g=original	!	!	!	!	!LO:PB:g=original	!	!	!	!
==	==	==	==	==	==	==	==	==	==	==	==	==	==	==	==	==	==	==	==	==
*-	*-	*-	*-	*-	*-	*-	*-	*-	*-	*-	*-	*-	*-	*-	*-	*-	*-	*-	*-	*-
!!!system-decoration: [(s1,s2,s3,s4)]
!!!RDF**kern: < = below
!!!RDF**kern: > = above
!!!ENC: Marta Chmielewska
!!!END: 2021-03-31
!!!ENC: Berenika Jozajtis
!!!END: 2021-03-11
!!!YEC: Copyright 2022 Narodowy Instytut Fryderyka Chopina (https://polishscores.org)
!!!YEM: License CC-BY-4.0 (https://creativecommons.org/licenses/by/4.0)
